X: 289
T: 290. Es ist das Heil uns kommen her
N: Derived from chor290.krn
C: Johann Sebastian Bach
%%abc-version 2.0
%%abcx-abcm2ps-target-version 5.9.1 (29 Sep 2008)
%%abc-creator hum2abc beta
%%abcx-conversion-date 2019/03/11 17:28:19
%%abc-edited-by Craig Stuart Sapp
%%humdrum-veritas 647824977
%%humdrum-veritas-data 255517315
%%
%%barnumbers 0
L: 1/8
M: C
%%staves [1 2 3 4]
V: 1 clef=treble
V: 2 clef=treble
V: 3 clef=treble-8
V: 4 clef=bass
K: E
[V:1] B2 [I:setbarnb 1]| 
[V:2] G2 | 
[V:3] e2 | 
[V:4] E,2 | 
[V:1] B2B2Bc=d2 | 
[V:2] FGA2GAB2 | 
[V:3] B2f2e2e2 | 
[V:4] E,2D,2E,2G,,2 | 
[V:1] c2B2!fermata!A2BA | 
[V:2] BA =DE!fermata!F2F2 | 
[V:3] ef=g2!fermata!=d2B2 | 
[V:4] A,,2B,,C,!fermata!=D,2^D,2 | 
[V:1] ^GF EFG2^A2 | 
[V:2] E2B,2E2C2 | 
[V:3] BAG2c2F2 | 
[V:4] E,3D, C,D, E,F, | 
[V:1] B2c2!fermata!B2 :|]  
[V:2] F3E!fermata!D2 :|]  
[V:3] FB^A2!fermata!F2 :|]  
[V:4] D,B,,F,2!fermata!B,,2 :|]  
[V:1] B2 [I:setbarnb 5]| 
[V:2] EF | 
[V:3] G2 | 
[V:4] E,D, | 
[V:1] e2d2c2d2 | 
[V:2] G^AB2AGF2 | 
[V:3] c2def2B2 | 
[V:4] C,2B,,2F,G, =A,F, | 
[V:1] edc2!fermata!B2B2 | 
[V:2] BG^A2!fermata!F2G=A | 
[V:3] B2fe!fermata!d2e2 | 
[V:4] G,E,F,2!fermata!B,,2E,F, | 
[V:1] e2B2c2GA | 
[V:2] BA GF ^EF GC | 
[V:3] Bc=d2cd ^ef | 
[V:4] G,A,B,2B,A, G,F, | 
[V:1] B2A2!fermata!G2G2 | 
[V:2] CG GF F!fermata!^EE2 | 
[V:3] gcc2!fermata!c2c2 | 
[V:4] ^E,2F,2!fermata!C,2CB, | 
[V:1] FGA2G2F2 | 
[V:2] F=E DC B,CD2 | 
[V:3] cBA2e2BA | 
[V:4] A,G,F,2G,A,B,2 | 
[V:1] C2D2!fermata!E2 |]  
[V:2] E2B,2!fermata!B,2 |]  
[V:3] =G2FA!fermata!G2 |]  
[V:4] B,^A,B,2!fermata!E,2 |]  



